X: 248
%
U:~=!turn!
T: I'll Gang nae mair to yon toun.
C:
O:Scotland
B:Keith Norman MacDonald : "The Skye collection of the best reels & strathspeys extant" : 1887
Z:Ralph Palmer
R:Reel
M:C|
L:1/8
K:F
A | {DE}Fffc {cB}A2 {DE}Fc | (A{/B}c)TcA BGGf | (a/g/f/e/) Tfc {cB}A2 {DE}FB | (A/B/c) {/^F}GB A=FF :: B | (AF)cF dFcf |
AF (d/c/B/A/) (BG)GB | [1 (AF)cF dFcF | (A/B/c) {/^F}GB A=FF :| ["last time" AFEF GABc | defg af~f |]


